X: 858
T: Lannigan's Ball
N:"Collected by F.O'Neill"
B:O'Neill's 858
Z:Transcribed by Dan G. Petersen, dangp@post6.tele.dk
M:6/8
L:1/8
K:Em
EFE G2A|B2A B^cd|D2E F2G|ABA AFD|
EFE G2A|B2A B^c^d|edB cBA|BGE E2:|
d|e2f gfg|eag fe^d|e2f gfg|fdB B3|
e2f gfg|eag fe^d|edB cBA|BGE E2:|


